client/packages/widget-iframe/public/images/right-circle-arrow.svg

<svg width="15" height="15" viewBox="0 0 15 15" fill="none" xmlns="http://www.w3.org/2000/svg">
<path d="M7.39736 14.1756C11.3119 14.1756 14.4851 11.0024 14.4851 7.08779C14.4851 3.1732 11.3119 0 7.39736 0C3.48277 0 0.30957 3.1732 0.30957 7.08779C0.30957 11.0024 3.48277 14.1756 7.39736 14.1756Z" fill="#28E6DB" fill-opacity="0.2"/>
<path d="M6.50421 10.1215C6.36955 10.1215 6.23488 10.0719 6.12856 9.96559C6.0297 9.86556 5.97426 9.73059 5.97426 9.58994C5.97426 9.4493 6.0297 9.31433 6.12856 9.21429L8.2549 7.08795L6.12856 4.96162C6.0297 4.86158 5.97426 4.72661 5.97426 4.58596C5.97426 4.44532 6.0297 4.31035 6.12856 4.21031C6.33411 4.00477 6.67432 4.00477 6.87987 4.21031L9.38186 6.7123C9.5874 6.91785 9.5874 7.25806 9.38186 7.46361L6.87987 9.96559C6.77355 10.0719 6.63888 10.1215 6.50421 10.1215Z" fill="#28E6DB"/>
</svg>

<svg xmlns="http://www.w3.org/2000/svg" viewBox="0 0 15 15" fill="#000"><path d="M7.397 14.176a7.09 7.09 0 0 0 7.088-7.088A7.09 7.09 0 0 0 7.397 0 7.09 7.09 0 0 0 .31 7.088a7.09 7.09 0 0 0 7.088 7.088z" fill-opacity=".1"/><path d="M6.504 10.122c-.135 0-.269-.05-.376-.156-.099-.1-.154-.235-.154-.376s.055-.276.154-.376l2.126-2.126-2.126-2.126c-.099-.1-.154-.235-.154-.376s.055-.276.154-.376c.206-.206.546-.206.751 0l2.502 2.502c.206.206.206.546 0 .751L6.88 9.966c-.106.106-.241.156-.376.156z"/></svg>
